X:1
T:[ID 8-113]
T:[ID 8-113]
T:Bezeichnung standardisiert: Schwabisch Schw\"abisch
T:Urheber unbekannt Datum in der hier transkribierten schriftlichen Quelle: 1792
C:Urheber unbekannt
C:Datum in der hier transkribierten schriftlichen Quelle: 1792
L:1/8
M:3/8
K:D
V:1 treble 
V:1
 ABc | def | gfe | ddd | ABc | def | gfe | d3 :: afd | afd | afd | eee | ABc | def | gfe | d3 :| %16

